client/public/assets/icons/utility/package_org_beta.svg

<?xml version="1.0"?><svg xmlns="http://www.w3.org/2000/svg" width="52" height="52" viewBox="0 0 52 52"><path fill="#fff" d="m44.4 23h-5.8c-0.4 1.5-1.1 2.8-2.1 4h7.5v6h-36v-6h6v-4h-6.4c-2 0-3.6 1.6-3.6 3.6v19.4c0 1.7 1.3 3 3 3h38c1.7 0 3-1.3 3-3v-19.4c0-2-1.6-3.6-3.6-3.6z m-9.4-13.1c0-3.9-3.4-6.9-7.2-6.9h-8.3c-0.8 0-1.5 0.7-1.5 1.5v21c0 0.8 0.7 1.5 1.5 1.5h8.5c3.9 0 7-3.2 6.9-7.1 0-1.9-0.8-3.6-2.1-4.8 1.4-1.4 2.2-3.2 2.2-5.2z m-13-2.9h6c1.6 0 3 1.3 3 3 0 1.6-1.3 3-3 3h-6v-6z m9 13c0 1.6-1.3 3-3 3h-6v-6h6c1.7 0 3 1.3 3 3z"></path></svg>

<?xml version="1.0" encoding="utf-8"?>
<!-- Generator: Adobe Illustrator 18.1.1, SVG Export Plug-In . SVG Version: 6.00 Build 0)  -->
<svg version="1.1" id="Layer_1" xmlns="http://www.w3.org/2000/svg" xmlns:xlink="http://www.w3.org/1999/xlink" x="0px" y="0px"
	 width="52px" height="52px" viewBox="0 0 52 52" enable-background="new 0 0 52 52" xml:space="preserve">
<path fill="#FFFFFF" d="M44.4,23h-5.8c-0.4,1.5-1.1,2.8-2.1,4H44v6H8v-6h6v-4H7.6c-2,0-3.6,1.6-3.6,3.6V36v4v6c0,1.7,1.3,3,3,3h38
	c1.7,0,3-1.3,3-3v-6v-4v-9.4C48,24.6,46.4,23,44.4,23z"/>
<path fill="#FFFFFF" d="M35,9.9C35,6,31.6,3,27.8,3h-8.3C18.7,3,18,3.7,18,4.5V13v4v8.5c0,0.8,0.7,1.5,1.5,1.5H28
	c3.9,0,7-3.2,6.9-7.1c0-1.9-0.8-3.6-2.1-4.8C34.2,13.7,35,11.9,35,9.9z M22,7h6c1.6,0,3,1.3,3,3c0,1.6-1.3,3-3,3h-0.3H22V7z M31,20
	c0,1.6-1.3,3-3,3h-6v-6h6C29.7,17,31,18.3,31,20z"/>
</svg>
